X:1
T:Dog and Gun
M:2/4
L:1/8
K:G
 z G G3/2 A/2| G2 D3/2- B,/2| E3/2 E/2 D3/2 D/2| D3 G| B2 B2| d2 B3/2 G/2|\
 A2 A3/2 B/2| A2A-B|c-B AB|c-B AB|c-B AE| D2 DE| AA A2| A d2 z/2 B/2|\
 c2 G3/2 G/2| G4|
